X:391
T:Major Mole
R:Reel
O:Scotland
B:Kerr's Second p9
B:Kerr's First p19 as a Scottiche
S:Kerr's Second
Z:Transcription, chords:Mike Long
M:C|
L:1/8
K:C
"Am"Aeed "F"cBA^G|"Am"Aeed "G"c2B2|"Am"Aee^f "C"gfge|"G"dBGB "Em"edcB:|\
"Am"AE E/E/E "F"cAB^G|"Am"AE E/E/E "G"c2Bc|
"Am"AE E/E/E "F"cAFA|"G"BGGB d2cB|\
"Am"AE E/E/E "F"cAB^G|"Am"AE E/E/E "G"c2Bc|"Am"Aee^f "C"gfge|"G"dBGB "Em"edcB|]
